X: 41698
T: Valerie
R: reel
M: 4/4
K: Adorian
A2 ed eA B/B/A|eged BGGB|A2 ed eA B/B/A|BAGE ADEG|
A2 ed eA B/B/A|fged BAGB|A2 ed eA B/B/A|BAGB A2 A/A/A||
A2 af (3gag eg|(3fgf df geee|Aaag abag|edeg ~a3g|
A2 af (3gag eg|(3fgf df geee|dega bbbg|edea gedB||

